static/assets/img/icons/theme/code/code.svg

<svg height="24" viewBox="0 0 24 24" width="24" xmlns="http://www.w3.org/2000/svg"><g fill="none" fill-rule="evenodd"><path d="m0 0h24v24h-24z" opacity="0"/><g fill="#000"><path d="m17.2718029 8.68536757c-.3785165-.40217375-.3593385-1.03504822.0428353-1.41356469.4021737-.37851647 1.0350482-.35933846 1.4135647.04283529l4 4.25000003c.3624.38505.3624.9856794 0 1.3707294l-4 4.25c-.3785165.4021737-1.011391.4213517-1.4135647.0428353-.4021738-.3785165-.4213518-1.011391-.0428353-1.4135647l3.3549509-3.5646353zm-10.54360578-.00000287-3.35495087 3.5646353 3.35495087 3.5646353c.37851647.4021738.35933846 1.0350482-.04283529 1.4135647s-1.03504822.3593384-1.4135647-.0428353l-4-4.25c-.3624-.38505-.3624-.9856794 0-1.3707294l4-4.25c.37851648-.40217375 1.01139095-.42135176 1.4135647-.04283529s.42135176 1.01139094.04283529 1.41356469z" fill-rule="nonzero"/><rect height="16" opacity=".3" rx="1" transform="matrix(.96592583 .25881905 -.25881905 .96592583 3.514719 -2.696938)" width="2" x="11" y="4"/></g></g></svg>

<svg width="24px" height="24px" viewBox="0 0 24 24" version="1.1" xmlns="http://www.w3.org/2000/svg" xmlns:xlink="http://www.w3.org/1999/xlink">
    <title>Icon For Code</title>
    <g stroke="none" stroke-width="1" fill="none" fill-rule="evenodd">
        <rect opacity="0" x="0" y="0" width="24" height="24"></rect>
        <path d="M17.2718029,8.68536757 C16.8932864,8.28319382 16.9124644,7.65031935 17.3146382,7.27180288 C17.7168119,6.89328641 18.3496864,6.91246442 18.7282029,7.31463817 L22.7282029,11.5646382 C23.0906029,11.9496882 23.0906029,12.5503176 22.7282029,12.9353676 L18.7282029,17.1853676 C18.3496864,17.5875413 17.7168119,17.6067193 17.3146382,17.2282029 C16.9124644,16.8496864 16.8932864,16.2168119 17.2718029,15.8146382 L20.6267538,12.2500029 L17.2718029,8.68536757 Z M6.72819712,8.6853647 L3.37324625,12.25 L6.72819712,15.8146353 C7.10671359,16.2168091 7.08753558,16.8496835 6.68536183,17.2282 C6.28318808,17.6067165 5.65031361,17.5875384 5.27179713,17.1853647 L1.27179713,12.9353647 C0.909397125,12.5503147 0.909397125,11.9496853 1.27179713,11.5646353 L5.27179713,7.3146353 C5.65031361,6.91246155 6.28318808,6.89328354 6.68536183,7.27180001 C7.08753558,7.65031648 7.10671359,8.28319095 6.72819712,8.6853647 Z" fill="#000000" fill-rule="nonzero"></path>
        <rect fill="#000000" opacity="0.3" transform="translate(12.000000, 12.000000) rotate(-345.000000) translate(-12.000000, -12.000000) " x="11" y="4" width="2" height="16" rx="1"></rect>
    </g>
</svg>
